!!!ONB: MCCC : IJH0466_02 : Extracted Monophonic Melody
!!!COM: Haydn, Joseph
!!!OPR: String Quartet in G major
!!!OMV: 2
!!!SCT: Hob.III:81 ; Op.77 No.1
!!!ODT: 1799///
**kern
*thru
*k[b-e-a-]
*E-:
*clefF
*M4/4
2ee-
4g
4cc
=1
4..a-
16f
8d
6..r
48r
16d
=2
8e-
8r
8f
8r
8g
8r
4a-
=3
2g
8f
4.r
=4
2ee-
4g
4cc
=5
4..a-
16f
8d
6..r
48r
16d
=6
8e-
8r
8a-
8r
8g
8r
8d
8r
=7
4e-
8r
8e-
8g
8b-
8ee-
8gg
=8
2bb-[
8.bb-]
32ccc
32bb-
8.aa-
16gg
=9
4aa-
8.aa-
16bb-
8ccc
6..r
48r
16ccc
=10
8bb-
16r
16bb-
8aa-
16r
16aa-
8gg
16r
16gg
16ff
16gg
16aa-
16ff
=11
2ee-[
16ee-]
16dd
16ff
16ee-
16gg
16ff
16aa-
16gg
=12
4..aa-
16ff
16dd
16b-
16a
16b-
48..cc
48..dd
48..ee-
48..ff
48..gg
48..aa-
32aa
=13
4.bb-
8gg
16ee-
16a
16b-
16g-
16g
16d
16e-
16B
=14
16c
16d
16e-
16e
16f
16g
16a-
16b
16cc
16dd
16ee-
16ee
16ff
16gg
16aa-
16dd
=15
4ee-
4r
2r
=16
4r
6..cc[
48cc]
16a
16ee-
16cc
16a
16f
16e-
16A
=17
4B-
4r
4b-
8.b-
16cc
=18
2dd-[
16dd-]
16a
16b-
16cc
16dd-
16cc
16dd-
16b-
=19
8dd-
8cc
8cc
8cc
8cc
8ff
8ff
8ff
=20
4..gg-
32ee-
32cc
8a
4.r
=21
3ff[
96ff]
32dd
16b-
16f
8d
6..r
48r
16bb-
=22
16bb-
16aa
16aa
16aa-
16aa-
16gg
16gg
16gg-
16gg-
16ff
16ff
16ee
16ee
16ff
16gg
16ee-
=23
16ee-
16dd
16gg
16ff
16aa
16bb-
16ccc
16bb-
16eee-
16ddd
4r
16ff
16b-
=24
16b-
16a
16a
16b
16b
16cc
16cc
16dd
16dd
16ee-
16ee-
16gg-
16gg-
16gg
16gg
16ee-
=25
8.ee-
16dd
8dd
16r
16dd
8dd
6..r
48r
16dd
=26
16dd
16dd-
16dd-
16cc
16cc
16gg
16gg
16gg
16b
16cc
16dd
16cc
16cc
16gg
16gg
16gg
=27
16a
16ff
16ff
16ff
16b-
16bb-
16bb-
16bb-
16aa
16eee-
16eee-
16eee-
16ddd
16bbb-
16bbb-
16bbb-
=28
8ggg
4.r
4e-
8.c
16A
=29
4B-
4r
2r
=30
3..g[
24g]
8g
8a
8b-
=31
2f[
48..f]
48..g
48..f
48..e
48..f
48..g
48..a
48..b-
48..cc
48..dd
48..ee-
48..ff
32gg
32aa
=32
2bb-
4dd-
4gg-
=33
4..ee-
16cc
8a-
6..r
48r
16cc
=34
8dd-
16r
16dd-
8ee-
16r
16ee-
8ff
6..r
48r
16dd
=35
8ee-
16r
16ee-
8ff
16r
16ff
8gg-
6..r
48r
32ee
32gg
=36
8ff
16r
32ff
32aa-
8gg
16r
32gg
32bb-
8aa-
16r
32bb-
32aa-
8gg
8ff
=37
2ccc
4ee
4aa-
=38
4..gg
16ee
8cc
8r
4ff
=39
4..ee
16cc
8g
8r
8.a-
16f
=40
4..cc
32g
32e
4c
4c
=41
1c
=42
2dd-
4f
4b-
=43
4..g-
16e-
8c
8r
4g-
=44
4..f
32g-
32f
8.e-
16A-
8.a-
16a-
=45
4..g-
32a-
32g-
8.f
16B-
8.b-
16b-
=46
4..a-
32b-
32a-
8.g
16c
8.cc
16b-
=47
8a-
16r
16f
8.cc
16b-
8a-
16r
16f
8.cc
16b-
=48
8a-
16r
16a-
8g
16r
16g
8f
16r
16f
8f
16r
16f
=49
8f
16r
16f
8g
16r
16g
8a-
6..r
48r
16f
=50
8g
16r
16g
8a-
16r
16a
8b-
6..r
48r
16g
=51
8a-
16r
16a
8b-
16r
16b
8cc
6..r
48r
16cc
=52
8cc
6..r
48r
16b
8b
6..r
48r
16aa-
=53
8aa-
4.r
2r
=54
2ee-
4g
4cc
=55
4..a-
16f
8d
6..r
48r
16d
=56
4e-
4f
4g
4a-
=57
2g
8f
8r
48A[
192A]
48B-[
192B-]
48c[
192c]
48d[
192d]
48e-
48f
48g
48a-
48b-
48cc
48dd
=58
8ee-
8ee-
8ee-
8ee-
8ee-
8dd
8ee-
8ee
=59
8ff
8ff
8ff
8ff
8ff
8ee
8ff
8ff
=60
3..gg-[
24gg-]
8gg-
8gg-
8gg-
=61
4bb
6..bb[
48bb]
16bb-
16bb
16bb-
16bb
16eee-
16ddd-
16bb
=62
8bb-
4bb-
8bb-
8aa-
8.aa-
16bb
16bb-
16aa-
=63
8gg-
4gg-
16bb-
16gg-
8ff
8ff
8gg-
16ff
16gg-
=64
8ff
8bb-
8bb-
8bb-
8bb-
8bb-
8bb-
8bb-
=65
2bb-[
8.bb-]
32ccc
32bb-
8.aa-
16gg
=66
4aa-
8.aa-
16bb-
8ccc
4r
8ccc
=67
8bb-
16r
16bb-
8aa-
16r
16aa-
8gg
16r
16gg
16ff
16gg
16aa-
16ff
=68
2ee-[
16ee-]
16dd
16ff
16ee-
16gg
16ff
16aa-
16gg
=69
4..aa-
16ff
16dd
16b-
16a
16b-
32cc
32dd
32ee-
32ff
32gg
32aa-
16aa
=70
8.bb-
16aa-
32gg
32bb-
32aa-
32gg
32ff
32aa-
32gg
32ff
32ee-
32ff
32gg
32ff
32ee-
32dd
32cc
32b-
32a-
32g
32f
32e-
32d
32c
16B
=71
16c
16d
16e-
16e
16f
16g
16a-
16b
16cc
16ee
16ff
16gg
16aa-
16bb-
16ccc
16ee-
=72
4..bb-
32ff
32dd
8b-
6..r
48r
16bb-
=73
4.aa
24gg-
24ee-
24cc
24a
24cc
24ee-
8gg-
8.r
16aa-
=74
16aa-
16gg
16gg
16gg-
16gg-
16ff
16ff
16ee-
16ee-
16dd
16dd
16cc
16cc
16b-
16cc
16a-
=75
16a-
16g
16cc
16b-
16dd
16ee-
16ff
16ee-
16ccc
16bb-
6..r
48r
16ee-
=76
16dd
16ee-
16ee-
16ee
16ee
16ff
16ff
16gg
16gg
16aa-
16aa-
16bb-
16bb-
16bb
16.ccc
32aa-
=77
8.aa-
16gg
8gg
16r
16gg
8gg
6..r
48r
16gg
=78
16gg
16gg-
16gg-
16ff
16ff
16ccc
16ccc
16ccc
16ee
16ff
16gg
16ff
16ff
16ccc
16ccc
16ccc
=79
16ff
16bb-
16bb-
16bb-
16b-
16bb-
16bb-
16bb-
24d
24b-
24aa-
16aa-
16aa-
24e-
24b-
24gg
16gg
16gg
=80
4ff
4r
4dd
4r
=81
4ee-
4r
2r
=82
3..cc[
24cc]
8cc
8dd
8ee-
=83
3..b-[
24b-]
8B-
8c
8d
=84
2ee-
4g
4cc
=85
4..a-
16f
8d
4.r
=86
4..b-
16g
8e-
4.r
=87
4..f
16d
4B
8B-
8A-
=88
4..G
16B-
[12..e-
96e-]
16.r
8e-
8r
=89
1e-
==
*-
